X:339
%%etbk:tnset id:102,pos:1,rep:3x,ant:,targ:Ceili,env:Toe for Toe
%%etbk:wsite http://www.thesession.org/tunes/display/414
%%etbk:skill ?
%%etbk:pldat 2013-10-30T16:15,2013-10-28T18:34,2013-10-24T18:43,2013-10-16T16:25,2013-10-15T18:25,2013-10-13T15:50,2013-10-09T16:52
T: Seamus Cooley's
Z: Piano Box Version by Martin Fleischmann
H: Created 2013-02-19 /  Last Modified 2013-02-19
M: 6/8
L: 1/8
R: jig
K: Gmaj
|: "G"!5!BAB !3!GG!2!E | !1!D!2!D!1!D !1!D!2!E!3!G | "D"!4!ADA !4!A!3!G!2!E | !4!ABA AGA |
"G"!5!BAB !3!GG!2!E | !1!D!2!B,!1!D !1!D!2!E!3!G | "D"!4!A2A !4!A!3!G!2!E | "G"!3!G3 G2!4!A:|
|: "G"!3!BAB !5!ddB | !3!BAB !5!dBG | "D"!2!A2!4!A !4!A!3!G!2!E | !4!ABA AGA |
|1 "G"!3!BAB !5!ddB | !3!BAB !5!dBG | "D"!2!A2!2!A !2!A!1!G!2!E | "G"!1!G3 G2!2!A:|
|2 "G"!5!BAB !3!GG!2!E | !1!D!2!D!1!D !1!D!2!E!3!G | "D"!4!A2A !4!A!3!G!2!E | "G"!3!G3 G2!4!A||
